suite-common/icons/assets/icons/password.svg

<svg xmlns="http://www.w3.org/2000/svg" fill="none" viewBox="0 0 24 24">
  <path fill="#000" fill-rule="evenodd" d="M3.42 4.583a.66.66 0 0 0-.345.357c-.07.153-.073.449-.073 7.06 0 6.654.002 6.906.075 7.065a.68.68 0 0 0 .584.407c.282.023.388-.007.56-.159.281-.246.259.374.259-7.314 0-5.07-.012-6.988-.045-7.052a1.1 1.1 0 0 0-.363-.371c-.144-.075-.502-.071-.652.007m6.24 3.675a1 1 0 0 1-.147.038c-.155.035-.353.216-.438.402-.065.144-.073.28-.074 1.216-.001.827-.012 1.05-.051 1.036-.028-.011-.482-.158-1.01-.328-1.021-.329-1.103-.34-1.398-.2-.273.129-.43.49-.365.837.017.092.088.206.195.316.16.164.213.186 1.128.482.528.171.973.323.989.338s-.233.387-.554.826c-.321.44-.609.857-.639.928-.126.291-.018.674.247.876.134.102.183.115.441.115.229 0 .314-.017.403-.082.107-.077.497-.581 1.098-1.415l.264-.368.628.863c.695.954.77 1.022 1.143 1.022a.8.8 0 0 0 .312-.056c.123-.065.297-.242.363-.371.064-.125.055-.492-.015-.627a18 18 0 0 0-.62-.885c-.308-.425-.56-.789-.56-.808s.391-.162.869-.315c.478-.152.953-.316 1.054-.363a.736.736 0 0 0 .248-1.139.85.85 0 0 0-.562-.275c-.073-.001-.569.143-1.104.319s-.984.32-.999.32c-.014 0-.026-.489-.026-1.086 0-1.075-.001-1.089-.096-1.251a.8.8 0 0 0-.25-.25c-.151-.085-.395-.144-.474-.115m9 0a1 1 0 0 1-.147.038c-.155.035-.353.216-.438.402-.065.144-.073.28-.074 1.216-.001.827-.012 1.05-.051 1.036-.028-.011-.482-.158-1.01-.328-1.021-.329-1.103-.34-1.398-.2-.273.129-.43.49-.365.837.017.092.088.206.195.316.16.164.213.186 1.128.482.528.171.973.323.989.338s-.233.387-.554.826c-.321.44-.609.857-.639.928-.126.291-.018.674.247.876.134.102.183.115.441.115.229 0 .314-.017.403-.082.107-.077.497-.581 1.098-1.415l.264-.368.628.863c.695.954.77 1.022 1.143 1.022a.8.8 0 0 0 .312-.056c.123-.065.297-.242.363-.371.064-.125.055-.492-.015-.627a18 18 0 0 0-.62-.885c-.308-.425-.56-.789-.56-.808s.391-.162.869-.315c.478-.152.953-.316 1.054-.363a.736.736 0 0 0 .248-1.139.85.85 0 0 0-.562-.275c-.073-.001-.569.143-1.104.319s-.984.32-.999.32c-.014 0-.026-.489-.026-1.086 0-1.075-.001-1.089-.096-1.251a.8.8 0 0 0-.25-.25c-.151-.085-.395-.144-.474-.115"/>
</svg>

<svg xmlns="http://www.w3.org/2000/svg" fill="none" viewBox="0 0 24 24"><path d="M3.420 4.583 C 3.240 4.677,3.156 4.763,3.075 4.940 C 3.005 5.093,3.002 5.389,3.002 12.000 C 3.002 18.654,3.004 18.906,3.077 19.065 C 3.185 19.302,3.396 19.450,3.661 19.472 C 3.943 19.495,4.049 19.465,4.221 19.313 C 4.502 19.067,4.480 19.687,4.480 11.999 C 4.480 6.929,4.468 5.011,4.435 4.947 C 4.369 4.818,4.195 4.641,4.072 4.576 C 3.928 4.501,3.570 4.505,3.420 4.583 M9.660 8.258 C 9.638 8.266,9.572 8.284,9.513 8.296 C 9.358 8.331,9.160 8.512,9.075 8.698 C 9.010 8.842,9.002 8.978,9.001 9.914 C 9.000 10.741,8.989 10.964,8.950 10.950 C 8.922 10.939,8.468 10.792,7.940 10.622 C 6.919 10.293,6.837 10.282,6.542 10.422 C 6.269 10.551,6.112 10.912,6.177 11.259 C 6.194 11.351,6.265 11.465,6.372 11.575 C 6.532 11.739,6.585 11.761,7.500 12.057 C 8.028 12.228,8.473 12.380,8.489 12.395 C 8.505 12.410,8.256 12.782,7.935 13.221 C 7.614 13.661,7.326 14.078,7.296 14.149 C 7.170 14.440,7.278 14.823,7.543 15.025 C 7.677 15.127,7.726 15.140,7.984 15.140 C 8.213 15.140,8.298 15.123,8.387 15.058 C 8.494 14.981,8.884 14.477,9.485 13.643 L 9.749 13.275 10.377 14.138 C 11.072 15.092,11.147 15.160,11.520 15.160 C 11.632 15.160,11.773 15.135,11.832 15.104 C 11.955 15.039,12.129 14.862,12.195 14.733 C 12.259 14.608,12.250 14.241,12.180 14.106 C 12.148 14.044,11.869 13.645,11.560 13.221 C 11.252 12.796,11.000 12.432,11.000 12.413 C 11.000 12.393,11.391 12.251,11.869 12.098 C 12.347 11.946,12.822 11.782,12.923 11.735 C 13.358 11.534,13.481 10.965,13.171 10.596 C 13.044 10.445,12.792 10.322,12.609 10.321 C 12.536 10.320,12.040 10.464,11.505 10.640 C 10.970 10.816,10.521 10.960,10.506 10.960 C 10.492 10.960,10.480 10.471,10.480 9.874 C 10.480 8.799,10.479 8.785,10.384 8.623 C 10.331 8.533,10.219 8.420,10.134 8.373 C 9.983 8.288,9.739 8.229,9.660 8.258 M18.660 8.258 C 18.638 8.266,18.572 8.284,18.513 8.296 C 18.358 8.331,18.160 8.512,18.075 8.698 C 18.010 8.842,18.002 8.978,18.001 9.914 C 18.000 10.741,17.989 10.964,17.950 10.950 C 17.922 10.939,17.468 10.792,16.940 10.622 C 15.919 10.293,15.837 10.282,15.542 10.422 C 15.269 10.551,15.112 10.912,15.177 11.259 C 15.194 11.351,15.265 11.465,15.372 11.575 C 15.532 11.739,15.585 11.761,16.500 12.057 C 17.028 12.228,17.473 12.380,17.489 12.395 C 17.505 12.410,17.256 12.782,16.935 13.221 C 16.614 13.661,16.326 14.078,16.296 14.149 C 16.170 14.440,16.278 14.823,16.543 15.025 C 16.677 15.127,16.726 15.140,16.984 15.140 C 17.213 15.140,17.298 15.123,17.387 15.058 C 17.494 14.981,17.884 14.477,18.485 13.643 L 18.749 13.275 19.377 14.138 C 20.072 15.092,20.147 15.160,20.520 15.160 C 20.632 15.160,20.773 15.135,20.832 15.104 C 20.955 15.039,21.129 14.862,21.195 14.733 C 21.259 14.608,21.250 14.241,21.180 14.106 C 21.148 14.044,20.869 13.645,20.560 13.221 C 20.252 12.796,20.000 12.432,20.000 12.413 C 20.000 12.393,20.391 12.251,20.869 12.098 C 21.347 11.946,21.822 11.782,21.923 11.735 C 22.358 11.534,22.481 10.965,22.171 10.596 C 22.044 10.445,21.792 10.322,21.609 10.321 C 21.536 10.320,21.040 10.464,20.505 10.640 C 19.970 10.816,19.521 10.960,19.506 10.960 C 19.492 10.960,19.480 10.471,19.480 9.874 C 19.480 8.799,19.479 8.785,19.384 8.623 C 19.331 8.533,19.219 8.420,19.134 8.373 C 18.983 8.288,18.739 8.229,18.660 8.258 " stroke="none" fill-rule="evenodd" fill="black"></path></svg>
